symbols/web/4k/materialsymbolsoutlined/4k_wght200_24px.svg

<svg xmlns="http://www.w3.org/2000/svg" height="24" width="24"><path d="M12.875 14.7h.9v-2.375L16.05 14.7h1.225l-2.65-2.75 2.65-2.65H16.1l-2.325 2.325V9.3h-.9Zm-3.225 0h.9v-1.5h1.225v-.9H10.55v-3h-.9v3H7.775v-3h-.9v3.9H9.65ZM5.625 20q-.7 0-1.162-.462Q4 19.075 4 18.375V5.625q0-.7.463-1.162Q4.925 4 5.625 4h12.75q.7 0 1.163.463.462.462.462 1.162v12.75q0 .7-.462 1.163-.463.462-1.163.462Zm0-1h12.75q.25 0 .437-.188.188-.187.188-.437V5.625q0-.25-.188-.437Q18.625 5 18.375 5H5.625q-.25 0-.437.188Q5 5.375 5 5.625v12.75q0 .25.188.437.187.188.437.188ZM5 5v14V5Z"/></svg>

<svg xmlns="http://www.w3.org/2000/svg" height="24" width="24"><path d="M12.875 14.7H13.775V12.325L16.05 14.7H17.275L14.625 11.95L17.275 9.3H16.1L13.775 11.625V9.3H12.875ZM9.65 14.7H10.55V13.2H11.775V12.3H10.55V9.3H9.65V12.3H7.775V9.3H6.875V13.2H9.65ZM5.625 20Q4.925 20 4.463 19.538Q4 19.075 4 18.375V5.625Q4 4.925 4.463 4.463Q4.925 4 5.625 4H18.375Q19.075 4 19.538 4.463Q20 4.925 20 5.625V18.375Q20 19.075 19.538 19.538Q19.075 20 18.375 20ZM5.625 19H18.375Q18.625 19 18.812 18.812Q19 18.625 19 18.375V5.625Q19 5.375 18.812 5.188Q18.625 5 18.375 5H5.625Q5.375 5 5.188 5.188Q5 5.375 5 5.625V18.375Q5 18.625 5.188 18.812Q5.375 19 5.625 19ZM5 5Q5 5 5 5.175Q5 5.35 5 5.625V18.375Q5 18.65 5 18.825Q5 19 5 19Q5 19 5 18.825Q5 18.65 5 18.375V5.625Q5 5.35 5 5.175Q5 5 5 5Z"/></svg>
